svg/database.svg

<svg xmlns="http://www.w3.org/2000/svg" viewBox="0 0 32 32"><path style="text-indent:0;text-align:start;line-height:normal;text-transform:none;block-progression:tb;-inkscape-font-specification:Bitstream Vera Sans" d="M6 4v24h20V4H6zm2 2h16v5H8V6zm0 7h16v6H8v-6zm0 8h16v5H8v-5z" color="#000" overflow="visible" font-family="Bitstream Vera Sans"/></svg>

<svg xmlns="http://www.w3.org/2000/svg" viewBox="0 0 32 32" enable-background="new 0 0 32 32"><path d="M 6 4 L 6 5 L 6 27 L 6 28 L 7 28 L 25 28 L 26 28 L 26 27 L 26 5 L 26 4 L 25 4 L 7 4 L 6 4 z M 8 6 L 24 6 L 24 11 L 8 11 L 8 6 z M 8 13 L 24 13 L 24 19 L 8 19 L 8 13 z M 8 21 L 24 21 L 24 26 L 8 26 L 8 21 z" color="#000" overflow="visible" enable-background="accumulate"/></svg>
